X:1
T:Reality
T:Reality
T:Vladimir Cosma
T:Jeff Jordan
C:Vladimir Cosma
Z:All Rights Reserved
L:1/8
Q:1/4=76
M:4/4
K:F
V:1 treble 
%%MIDI program 16
V:1
"F""^Slow" AF c6 |"C" GE c6 |"^Cm" GA"D7" B2"D7" ^FG A2 |"^Bbm""C7" G8 |:"F" AccA c4 | %5
"^Am" AccA c4 |"^Cm" _eded e3 G |"D7" ^F"^Am7""D7"d-"^Am7""D7" d6 |"^Gm" GBBG B4 | %9
"^Bbm" B_ddB ^c4 |"^Am" Acc"^Dm"A"^Dm" G F2 E/F/ |"G7""C7" G8 |"F" A3 C BAGF |"A7" A3 ^C BAGF | %14
"^Dm" A4 e3 d |"G7" A4 z DEF |"Bb" AGG"C7"^F"C7" G3 E |"^Am" dcc"D7"=B"D7" c3 D |"^Gm" cBBA B3 A | %19
"Eb""C7" G8 |"F" A3 C BAGF |"A7" A3 ^C BAGF |"^Dm" A4 e3 d |"G7" A4 z DEF | %24
"Bb" AGG"C7"^F"C7" G3 E |"^Am" dcc"D7"=B"D7" c3 D |"^Gm" cBB"C7"A"C7" G3 F |1"F" F6 FG :|3 %28
"Bb" F6 F2 ||"^Fj7" !fermata!A8 |] %30

